svgs/ytstudio.svg

<svg width="24" height="24" viewBox="0 0 24 24" fill="none" xmlns="http://www.w3.org/2000/svg">
<path d="M11.973 1.58795C11.4353 1.58457 10.9612 1.9 10.9612 1.9C10.9612 1.9 6.38984 4.52161 3.92197 6.00067C3.72213 6.12044 3.22409 6.43764 2.98065 6.75862C2.65638 7.18624 2.66308 8.12462 2.66244 8.3496C2.65188 11.4817 2.664 13.8507 2.68076 16.542C2.68195 16.7381 2.71487 16.9456 2.95506 17.3038C3.16248 17.6132 3.34822 17.7723 3.52253 17.8735C6.4392 19.5659 8.63664 20.8587 11.1363 22.2878C11.3198 22.3927 11.7017 22.5069 11.9986 22.5106C12.276 22.514 12.5818 22.4542 12.8092 22.3226C15.5253 20.7496 17.989 19.3193 20.6425 17.7686C20.9273 17.6022 21.0724 17.383 21.1677 17.1763C21.2518 16.994 21.3424 16.626 21.3415 16.4102C21.3295 13.5978 21.3135 10.9489 21.3099 7.9562C21.3089 7.15798 21.1603 6.91274 20.9831 6.66319C20.7512 6.33682 20.4454 6.18684 19.8763 5.86223C17.3911 4.44449 13.2058 2.0059 13.2058 2.0059C13.2058 2.0059 12.5285 1.59143 11.973 1.58795ZM11.9729 5.6446C12.3126 5.64683 12.7268 5.90014 12.7268 5.90014C12.7268 5.90014 15.286 7.3913 16.8056 8.25821C17.1536 8.45671 17.3406 8.54834 17.4824 8.7479C17.5908 8.9005 17.6816 9.05043 17.6822 9.53852C17.6845 11.3685 17.6944 12.9882 17.7016 14.7079C17.7021 14.8399 17.6467 15.065 17.5953 15.1764C17.537 15.3028 17.4483 15.4369 17.2742 15.5386C15.6516 16.4868 14.1451 17.3614 12.4843 18.3232C12.3453 18.4037 12.1582 18.4403 11.9887 18.4382C11.8071 18.4359 11.5735 18.366 11.4613 18.3019C9.93284 17.428 8.58921 16.6377 6.80574 15.6028C6.69916 15.5409 6.58555 15.4435 6.45872 15.2544C6.31185 15.0354 6.29172 14.9085 6.29098 14.7886C6.28073 13.143 6.27336 11.6943 6.27981 9.77911C6.28016 9.64154 6.27604 9.06775 6.47436 8.80626C6.62322 8.61 6.92783 8.41605 7.05003 8.34281C8.55906 7.43841 11.3542 5.83536 11.3542 5.83536C11.3542 5.83536 11.6441 5.64253 11.9729 5.6446Z" fill="black"/>
<path d="M12.0003 6.60235C11.7222 6.59996 11.4766 6.76358 11.4766 6.76358C11.4766 6.76358 9.1091 8.12317 7.83093 8.89037C7.72743 8.95249 7.46954 9.11704 7.34325 9.28388C7.17501 9.50615 7.17734 9.99478 7.17673 10.1119C7.16764 11.7427 7.17117 12.9763 7.17673 14.3775C7.17715 14.4797 7.19398 14.5878 7.3178 14.7746C7.42472 14.9359 7.52063 15.0189 7.61066 15.0718C9.11729 15.9564 10.2524 16.6321 11.5436 17.3792C11.6384 17.434 11.8357 17.4938 11.9893 17.4962C12.1327 17.4983 12.291 17.4675 12.4087 17.3992C13.8154 16.5834 15.0914 15.8417 16.4656 15.0374C16.6131 14.9511 16.6885 14.8371 16.738 14.7296C16.7817 14.6348 16.829 14.4432 16.8288 14.3309C16.826 12.8665 16.8207 11.4872 16.8222 9.92902C16.8227 9.5134 16.7461 9.3855 16.6547 9.25536C16.5351 9.08516 16.3771 9.00679 16.0832 8.8371C14.7994 8.096 12.6375 6.82132 12.6375 6.82132C12.6375 6.82132 12.2876 6.60488 12.0003 6.60235V6.60235ZM10.1829 9.2074L12.6083 10.611L15.0335 12.0147L12.6058 13.4144L10.1781 14.8141L10.1806 12.0108L10.1829 9.2074Z" fill="black"/>
</svg>

<svg xmlns="http://www.w3.org/2000/svg" width="24" height="24" fill="none" viewBox="0 0 24 24"><path fill="#000" d="M11.973 1.588c-.538-.003-1.012.312-1.012.312S6.39 4.522 3.922 6c-.2.12-.698.438-.941.759-.325.427-.318 1.366-.319 1.59-.01 3.133.002 5.502.019 8.193.001.196.034.404.274.762.207.31.393.468.568.57 2.916 1.692 5.114 2.985 7.613 4.414.184.105.566.219.863.223.277.003.583-.057.81-.188 2.716-1.573 5.18-3.004 7.833-4.554.285-.167.43-.386.526-.593.084-.182.174-.55.174-.766-.012-2.812-.028-5.461-.032-8.454-.001-.798-.15-1.043-.327-1.293-.232-.326-.538-.476-1.107-.8-2.485-1.419-6.67-3.857-6.67-3.857s-.678-.415-1.233-.418m0 4.057c.34.002.754.255.754.255s2.559 1.491 4.079 2.358c.348.199.535.29.676.49.109.152.2.302.2.79.003 1.83.012 3.45.02 5.17 0 .132-.055.357-.107.468a.771.771 0 0 1-.32.363c-1.623.948-3.13 1.822-4.79 2.784-.14.08-.327.117-.496.115a1.29 1.29 0 0 1-.528-.136c-1.528-.874-2.872-1.664-4.655-2.7a1.056 1.056 0 0 1-.347-.348c-.147-.219-.167-.345-.168-.465a474.87 474.87 0 0 1-.011-5.01c0-.137-.004-.711.194-.973.15-.196.454-.39.576-.463 1.51-.905 4.304-2.508 4.304-2.508s.29-.192.619-.19"/><path fill="#000" d="M12 6.602a1.054 1.054 0 0 0-.523.162S9.109 8.124 7.83 8.89c-.104.062-.361.227-.488.394-.168.222-.166.71-.166.828-.01 1.63-.006 2.864 0 4.265 0 .103.017.21.14.398a.895.895 0 0 0 .294.297c1.506.884 2.641 1.56 3.933 2.307.094.055.292.115.445.117a.844.844 0 0 0 .42-.097c1.406-.816 2.682-1.557 4.057-2.362a.656.656 0 0 0 .272-.307 1.18 1.18 0 0 0 .09-.4c-.002-1.463-.007-2.843-.006-4.401 0-.416-.076-.543-.167-.674-.12-.17-.278-.248-.572-.418-1.284-.741-3.445-2.016-3.445-2.016s-.35-.216-.638-.219m-1.817 2.605 2.425 1.404 2.425 1.404-2.427 1.4-2.428 1.4.003-2.804.002-2.804"/></svg>
